X:1
T:I See a Crimson Stream
T:I See a Crimson Stream
T:Garfield Thomas Haywood
T:Garfield Thomas Haywood, 1920
T:Public Domain Courtesy of the Cyber Hymnal™
C:Garfield Thomas Haywood
Z:Public Domain
Z:Courtesy of the Cyber Hymnal™
%%score ( 1 2 ) ( 3 4 )
L:1/8
Q:1/4=110
M:4/4
K:Bb
V:1 treble 
V:2 treble 
V:3 bass 
V:4 bass 
V:1
 F2 | [Fd]3 [Fd] [Ge]2 [Fd]2 | [Fd] [Ec]3 z2 [EF]2 | [Ec]3 [Ec] [Fd]2 [Ec]2 | [DB]4 z2 [EF]2 | %5
w: 1.~On|Cal- ’vry’s hill of|sor- row Where|sin’s de- mands were|paid, And|
w: 2.~To-|day no con- dem-|na- tion A-|bides to turn a-|way My|
w: 3.~When|gloom and sad- ness|whis- per, “You’ve|sinned— no use to|pray,” I|
w: 4.~And|when we reach the|por- tal Where|life for- ev- er|reigns, The|
 [Fd]3 [Fd] [Ge]2 ([Fd][Fd]) | [Fd] [Ec]3 z2 [EF]2 | [Ec]3 [Ec] [Fd]2 [Ed]2 | [DB]4 z2 || %9
w: rays of hope for~to- *|mor- row A-|cross our path were|laid.|
w: soul from His sal- *|va- tion, He’s|in my heart to|stay.|
w: look a- way to *|Je- sus, And|He tells me to|say:|
w: ran- somed hosts’ grand *|fi- nal Will|be this glad re-|frain.|
"^Refrain" [DF]2 | [Fd]3 [FB] [Gc][GB][FA][EG] | F6 [DB]2 | [EA]3 [EG] [EF]2 [DB]2 | F6 [DB]2 | %14
w: |||||
w: I|see a crim- son stream of|blood, It|flows from Cal- va-|ry, Its|
w: |||||
w: |||||
 [Fd]3 [FB] [Gc][GB][FA][EG] | F6 [DF]2 | [EA]3 [EG] [EF]2 [Ec]2 | B4- [DB]2 |] %18
w: ||||
w: waves which reach the throne of|God, Are|sweep- ing o- ver|me. *|
w: ||||
w: ||||
V:2
 F2 | x8 | x8 | x8 | x8 | x8 | x8 | x8 | x6 || x2 | x8 | (D2 DD D2) x2 | x8 | (D2 EE D2) x2 | x8 | %15
 (D2 EE D2) x2 | x8 | D2 EE x2 |] %18
V:3
 F,2 | [B,,B,]3 [B,,B,] [B,,B,]2 [B,,B,]2 | [F,A,] [F,A,]3 z2 [F,A,]2 | %3
w: ~|~ ~ ~ ~|~ ~ ~|
 [F,A,]3 [F,A,] [F,B,]2 [F,A,]2 | [B,,F,]4 z2 [F,A,]2 | %5
w: ~ ~ ~ ~|~ ~|
 [B,,B,]3 [B,,B,] [B,,B,]2 ([B,,B,][B,,B,]) | [F,A,] [F,A,]3 z2 [F,A,]2 | %7
w: ~ ~ ~ ~ *|~ ~ ~|
 [F,A,]3 [F,A,] [F,B,]2 [F,A,]2 | [B,,F,]4 z2 || [B,,B,]2 | %10
w: ~ ~ ~ ~|~|~|
 [B,,B,]3 [D,B,] [E,G,][E,B,][E,C][E,B,] | [B,,B,]2 [B,,B,][B,,F,] [B,,B,]2 [D,F,]2 | %12
w: ~ ~ ~ ~ ~ ~|~ stream of blood, ~|
 [F,C]3 [F,B,] [F,A,]2 [D,F,]2 | [B,,B,]2 [F,A,][F,A,] [B,,B,]2 [B,,F,]2 | %14
w: ~ ~ ~ ~|~ Cal- va- ry ~|
 [B,,B,]3 [D,B,] [E,G,][E,B,][E,C][E,B,] | [B,,B,]2 [F,A,][F,A,] [F,B,]2 [D,B,]2 | %16
w: ~ ~ ~ ~ ~ ~|~ throne of God, ~|
 [F,C]3 [F,B,] [F,A,]2 [F,A,]2 | [B,,F,]2 [E,G,][E,G,] [B,,F,]2 |] %18
w: ~ ~ ~ ~|~ o- ver me.|
V:4
 F,2 | x8 | x8 | x8 | x8 | x8 | x8 | x8 | x6 || x2 | x8 | x8 | x8 | x8 | x8 | x8 | x8 | x6 |] %18

